X:13
T:Le mariage anglais
R:Chanson
O:France
B:Le livre des Chansons (Henri Davenson) n°13
Z:<anamnese@caramail.com> -- http://anamnese.fr.st
M:C|
L:1/8
Q:1/4=100
K:F
D2 F E | D2 C2 F2 G2 | A2-A z (A>G) A B |A3 D E2 G2 |
  E2-E z A>G A B | A2 D2 E2 G2 | F2 E2 F2 A2 |
E2-E z (A>G) A B | A2 D2 E2 G2 | F D F E D2-D z ||
W:C'était la fille au roi François
W:Que l'on marie à un Anglois
W:"O mes chers frères, empêchez de m'emmener !
W:J'aimerais mieux soldat françois que roi anglois."
W:
W:Et quand ce vint pour l'épouser,
W:Dedans Paris fallut passer :
W:Il n'y a dame de Paris que ne pleurit,
W:De voir partir la fille au roi a un Anglois.
W:
W:Et quand ce vint pour embarquer,
W:Les yeux lui a voulu bander,
W:"Bande les tiens et laisse-moi, maudis Anglois !
W:Puisque la mer me faut passer, je la verrai." /.../

